X: 1141
T: Silvermore.
B:O'Neill's Music of Ireland
N:O'Neill's - 1141
Z:Transcribed by Stephen Foy (shf@access.digex.net)
Z:abc 1.6
M:9/8
R:slipjig
K:D
d3 faf gfe|d3 fdf ecA|d2 d fdf efg|agf efd cBA:|
|:fge fdB B3|fge fdB cde|fge fdB Bcd|e2 e efd cBA:|


